X:1583
T:Blarney Pilgrim
R:Jig
C:Alistair Anderson, via EF
S:Nottingham Music Database
M:6/8
L:1/8
K:G
D|:DED DEG|A2G ABc|BAG AGE|GEA GEC|
DED DEG|A2G ABc|BAG AGE|GED D2:|
d|:ded dBG|AGA BGE|ded dBG|AGA GBd|
g2e dBG|AGA BGE|B2G AGE|GAG G2:|
G|A2D B2D|A2D ABc|BAG AGE|GEA GED|
A2D B2D|A2D ABc|BAG AGE|GED D2:|


